X:1
T:Also heilig ist der Tag
T:Seth Calvisius
T:Ps 121
T:Source : Harmonia-Canticum Ecclesiasticarum---Leipzig---F.Schnelboltz---1597. Editor : André Vierendeels 28/01/15).
T:Also heilig ist der Tag
C:Seth Calvisius
%%score [ 1 [ 2 3 ] 4 ]
L:1/8
Q:1/4=130
M:2/2
K:C
V:1 treble nm="Cantus" snm="C"
V:2 treble-8 nm="Tenor 1" snm="T 1"
V:3 treble-8 nm="Tenor 2" snm="T 2"
V:4 bass nm="Bassus" snm="B"
V:1
 D8 | E4 F4 | G8 | E4 D4 | F8 | E8 | D8 | G4 A4 | B8 | c8 | A8 | G8 | A8 | E8 | G6 F2 | E6 D2 | %16
w: Al-|so _|hei-|lig _|ist|der|Tag,|das ihn|nie-|mand|mit|lo-||ben|er- *||
 C4 D4 | E8 | D8 |"^-natural" E4 F4 | G8 | E4 D4 | F8 | E8 | D8 | G4 A4 | B8 | c8 | A8 | G8 | E8 | %31
w: fül- len|mag,|denn|der _|ei-|ni- ge|Got-|tes|Sohn,|de _|die|hel-|le|ü-|ber-|
 D8 | G4 A4 | B8 | c8 | A8 | ^G8 | A8 | E8 | G6 F2 | E6 D2 | C4 D4 | E8 | E8 | D4 D4 | E6 F2 | %46
w: wand,|und _|den|lei-|di-|gen|Teuf-|fel|da- *|rin- *|* nen|band,|da-|mit er-|löst der|
 G6 F2 | E4 D4 | F8 | E8 | D8 | E8 | E8 | G8 | D8 | ^C8 | D4 D4 | E8 | E8 |] %59
w: Herr die|Chri- *||sten|heit,|das|war|Christ|sel-|ber.|Ky- ri-|e|leis.|
V:2
 A8 | c8 | d8 | G8 | d8 | ^c8 | d8 | e4 f4 | g8 | g8 | f4 d4 | e8 | f8 | g2 f2 e2 d2 | e6 f2 | %15
w: Al-|so|hei-|lig|ist|der|Tag,|das ihn|nie-|mand|mit _|lo-|ben|er- * * *||
 c6 f2 | e4 d4 | ^c8 | A8 | c8 | d8 | G4 G4 | d8 | ^c8 | d8 | e4 f4 | g8 | g8 | f8 | d8 | ^c8 | %31
w: |fül- len|mag,|denn|der|ni-|ni- ge|Got-|tes|Sohn,|der _|die|hel-|le|ü-|ber-|
 d8 | e4 f4 | g8 | g8 | f4 d4 | e8 | ^f8 | g2 f2 e2 d2 | e6 f2 | c6 f2 | e4 d4 | ^c8 |"^#" c8 | %44
w: wand,|und _|den|lei-|di- *|gen|Teuf-|fel _ _ _|da- *|rin- *|* nen|band,|da-|
 d4 G4 | ^c6 d2 | e6 c2 | c4 B4 | d8 | ^c8 | d8 | G8 | c8 | B8 | A8 | A8 | A4 A4 | c8 | B8 |] %59
w: mit er-|löst der|Herr die|Chri- *||sten|heit,|das|war|Christ|sel-|ber.|Ky- ri-|e-|leis.|
V:3
 D8 | G4 A4 | B8 | c4 d4 | A8 | A8 | A8 | c4 c4 | d8 | e8 | c4 A4 | B8 | d8 | G8 | c6 A2 | G6 F2 | %16
w: lig|ist _|der|Tag, _|das|ihn|nie-|mand mit|lo-|ben|er- _|fül-||len|mag, *||
 A4 A4 | A8 | ^F8 | G4 A4 | B8 | c4 d4 | A8 | A8 | A8 | c8 | d8 | e8 | d8 | B8 | A8 | A8 | c8 | %33
w: denn der|ei-|ni-|ge _|Got-|tes Sohn,|der|die|hel-|le|ü-|ber-|wand,|und|den|lei-|di-|
 d8 | e8 | c4 A4 | B8 | d8 | G8 | c6 A2 | G6 F2 | A4 A4 | A8 | A8 | A4 D4 | A6 A2 | %46
w: gen|Teuf-|fel *|da-|rin-|nen|band, *|da *|* mit|er-|löst|der Herr|die Chri-|
"^-natural" c6 A2 | G4 G4 | A8 | A8 | A8 | c8 | c8 | d8- | d4 D4 | E8 | F4 F4 | A8 | ^G8 |] %59
w: sten- _|_ heit,|das|war|Christ|sel-|ber.|Ky-|_ ri-|e-|leis. en-|Al-|so|
V:4
 D,8 | C,4 A,,4 | G,,8 | C,4 B,,4 | D,8 | A,,8 | D,8 | C,4 A,,4 | G,,8 | C,8 | F,8 | E,8 | D,8 | %13
w: lig|ist _|der|Tag, _|das|ihn|nie-|mand mit|lo-|ben|er-|fül-||
 C,8 | C,6 F,,2 | C,6 D,2 | A,,4 D,4 | A,,8 | D,8 | C,4 A,,4 | G,,8 | C,4 B,,4 | D,8 | A,,8 | D,8 | %25
w: len|mag, *||denn der|ei-|ni-|ge _|Got-|tes Sohn,|der|die|hel-|
 C,4 A,,4 | G,,8 | C,8 | D,8 | G,,8 | A,,8 | D,8 | C,4 A,,4 | G,,8 | C,8 | F,8 | E,8 | D,8 | C,8 | %39
w: le _|ü-|ber-|wand,|und|den|lei-|di- _|gen|Teuf-|fel|da-|rin-|nen|
 C,6 F,,2 | C,6 D,2 | A,,4 D,4 | A,,8 | A,,8 | D,4 B,,4 | A,,6 D,2 |"^-natural" C,6 F,,2 | %47
w: band, *|da *|* mit|er-|löst|der Herr|die Chri-|sten- _|
 C,4 G,,4 | D,8 | A,,8 | D,8 | C,8 | A,,8 | G,,8 | D,8 | A,,8 | D,4 D,4 | A,,8 | E,8 |] %59
w: _ heit,|das|war|Chist|sel-|ber.|_|ri-|e-|leis. *|||

